X: 8200
T: Coolin, The
R: strathspey
M: 4/4
K: Gmajor
B>d|g2 g2 a>f|g2 B2 GB/d/|g>f ga/b/ ag|g2 Hf2 g>f|
e3 f/g/ a/g/f/e/|d2 Bd gd|f/e/d/c/ B>G PA>G|G4 de/f/|
g2 {agf}g2 {fg}a>f|g>d B2 GB/d/|g>f ga/b/ ag|g2 Hf2 g>f|
e3 f/g/ a/g/f/e/|d2 Bd gd|f/e/d/c/ B>G PA>G|G4||
dc|:B>A GA Bc|d{e}d/^c/ de fd|g>f ga/b/ ag|g2 Hf2 g>f|
e3 f/g/ a/g/f/e/|d2 Bd gd|f/e/d/c/ B>G PA>G|1 G4 dc/A/:|2 G4||

